common/svg/logs-icon.svg

<svg fill="none" height="20" viewBox="0 0 20 20" width="20" xmlns="http://www.w3.org/2000/svg"><g fill="#000"><path d="m13.1026 9.44933c0 .25159-.0662.47414-.1988.66767-.1326.1935-.3237.3445-.5732.4528-.2457.1045-.5381.1568-.8774.1568-.6707 0-1.2049-.1935-1.60264-.5806l.48544-.53411c.3081.27094.6727.40641 1.0938.40641.2028 0 .3646-.04258.4855-.12773.1248-.08902.1872-.21094.1872-.36576 0-.14708-.0527-.26126-.158-.34254-.1014-.08516-.2924-.17031-.5732-.25546-.4757-.14321-.813-.31157-1.0119-.5051-.1988-.19353-.2983-.44317-.2983-.74894 0-.23998.0663-.44898.1989-.62703.1365-.17804.3197-.31351.5498-.4064.234-.09289.4933-.13934.7779-.13934.5966 0 1.0802.17417 1.4506.52252l-.4504.51671c-.1364-.11224-.2846-.19546-.4445-.24965-.156-.05805-.3178-.08708-.4855-.08708-.1871 0-.3353.03483-.4445.1045-.1053.0658-.1579.16256-.1579.29029 0 .08515.0234.15676.0702.21481.0507.05806.1325.11225.2456.16257.1131.05031.2827.11031.5089.17997.4133.12386.7194.28449.9183.48188.2028.19353.3041.46447.3041.81281z"/><path d="m5.98888 9.93121h-.75453v-3.32671h-.81887l-1.3102.78959.39189.63283.83642-.52252v2.42681h-.9768v.69669h2.63209z"/><path d="m7.56585 9.6235c-.12478.12773-.18717.27868-.18717.4529 0 .178.06239.3309.18717.4586.12868.1277.28271.1916.46208.1916s.33145-.0639.45623-.1916c.12868-.1277.19302-.2806.19302-.4586 0-.17422-.06434-.32517-.19302-.4529-.12478-.12772-.27686-.19159-.45623-.19159s-.3334.06387-.46208.19159z"/><path d="m16.1068 6.61031c-.2028-.07354-.4445-.11031-.7253-.11031-.3587 0-.6824.08322-.9709.24965-.2886.16643-.5148.40834-.6785.72572-.1638.31738-.2457.69476-.2457 1.13212 0 .44898.0799.8341.2398 1.15535.1599.31736.3802.55736.661.71996.2846.1625.6122.2438.9826.2438.5498 0 1.0041-.1819 1.3628-.5457l-.4328-.55159c-.1482.11612-.2866.20514-.4153.26707-.1287.06192-.2827.09289-.462.09289-.2925 0-.5226-.11225-.6902-.33674-.1677-.22836-.2516-.5767-.2516-1.04504 0-.46833.0839-.81861.2516-1.05084.1715-.23223.3957-.34835.6726-.34835.2925 0 .5615.0987.8072.2961l.4679-.56316c-.1794-.14708-.3704-.25739-.5732-.33093z"/><path d="m5.14077 13.4302c-.21057-.1045-.46403-.1568-.76039-.1568-.31195 0-.581.06-.80717.18-.22227.12-.41334.2903-.57321.5109l.56151.4238c.10919-.1432.22032-.2458.3334-.3077.11308-.0658.24566-.0987.39774-.0987.17547 0 .31.0464.40358.1393.09359.0929.14038.2226.14038.389 0 .1587-.05459.329-.16377.5109-.10529.1781-.27686.3968-.51472.6561-.23786.2554-.59661.6135-1.07623 1.0741v.6502h2.69058l.09943-.7025h-1.73133c.42504-.3754.75258-.6889.98265-.9405.23396-.2555.40164-.4858.50302-.6909.10138-.2052.15208-.418.15208-.6387 0-.209-.0546-.4006-.16378-.5747-.10528-.1781-.26321-.3193-.47377-.4238z"/><path d="m7.37868 16.8498c0-.1742.06239-.3252.18717-.4529.12868-.1277.28271-.1916.46208-.1916s.33145.0639.45623.1916c.12868.1277.19302.2787.19302.4529 0 .178-.06434.3309-.19302.4586-.12478.1277-.27686.1916-.45623.1916s-.3334-.0639-.46208-.1916c-.12478-.1277-.18717-.2806-.18717-.4586z"/><g clip-rule="evenodd" fill-rule="evenodd"><path d="m12.8511 16.7627c-.0312-.0542-.0468-.1374-.0468-.2497v-1.2076c0-.7276-.4523-1.0915-1.3569-1.0915-.1755 0-.3724.0213-.5908.0639-.2145.0387-.4211.0948-.62.1684l.2106.6096c.1481-.0503.3002-.0891.4562-.1161.1599-.031.2924-.0465.3977-.0465.4095 0 .6142.1587.6142.4761v.1103h-.4153c-.4796 0-.852.0929-1.1172.2787-.2651.1819-.39771.4393-.39771.7721 0 .2865.09551.5206.28661.7025.1911.1781.4465.2671.7662.2671.2028 0 .3939-.0348.5732-.1045.1794-.0735.3276-.178.4446-.3135.0702.1238.1676.2187.2924.2845.1248.0619.2808.1025.4679.1219l.1931-.6038c-.0741-.0271-.1268-.0677-.158-.1219zm-1.1815-.0058c-.1053.058-.2105.087-.3158.087-.1326 0-.2359-.0329-.31-.0987-.0702-.0657-.1053-.1586-.1053-.2786 0-.3097.2495-.4645.7487-.4645h.2281v.5051c-.0546.1045-.1365.1877-.2457.2497z"/><path d="m14.4983 16.1298c.0585.4684.308.7025.7487.7025.2651 0 .5303-.0851.7955-.2554l.3684.4993c-.152.1316-.3334.2361-.5439.3135-.2106.0735-.4426.1103-.6961.1103-.347 0-.6414-.0677-.8832-.2032-.2417-.1393-.425-.3309-.5498-.5748-.1209-.2477-.1813-.5341-.1813-.8592 0-.3097.0585-.5883.1755-.8361.1208-.2515.2944-.4489.5205-.5921.2301-.1471.5031-.2207.8189-.2207.2964 0 .5537.0639.7721.1916.2184.1239.386.3058.503.5458.1209.2361.1813.5186.1813.8476 0 .1277-.0058.238-.0175.3309zm.5732-1.3005c-.1677 0-.3022.062-.4036.1858-.1014.12-.1618.3058-.1813.5574h1.1406c-.0078-.4954-.1931-.7432-.5557-.7432z"/><path d="m20 18c0 1.1046-.8954 2-2 2h-16c-1.104569 0-2-.8954-2-2v-16c0-.06904.00349778-.13725.0103258-.20449.1024202-1.00851.9541402-1.79551 1.9896742-1.79551h16c1.1046 0 2 .895431 2 2zm-19-13h18v3.14884h-.9419v-1.54434h-.9592v4.0234h.9592v-1.69528h.9419v4.43388c-.18-.0621-.3848-.0931-.6143-.0931-.546 0-1.008.1819-1.3863.5457l.4738.4877c.2457-.2322.5147-.3483.8072-.3483.1754 0 .3178.0445.427.1335.1091.0852.1637.2032.1637.3542 0 .1703-.0565.3019-.1696.3948-.1092.089-.2574.1335-.4445.1335h-.2574l-.1053.627h.3685c.4563 0 .6844.2013.6844.6038 0 .1858-.0624.3309-.1872.4354s-.2905.1568-.4972.1568c-.3392 0-.62-.1277-.8422-.3832l-.5206.4819c.1716.1935.3782.3425.62.447s.5108.1568.8072.1568c.2484 0 .4726-.0335.6728-.1005v.6005c0 .5523-.4477 1-1 1h-16c-.55228 0-1-.4477-1-1zm18 10.2802v-.03c-.0211.0071-.0426.0139-.0645.0204.0219.0029.0434.0061.0645.0096z"/></g></g></svg>

<svg width="20" height="20" viewBox="0 0 20 20" fill="none" xmlns="http://www.w3.org/2000/svg">
<path d="M13.1026 9.44933C13.1026 9.70092 13.0364 9.92347 12.9038 10.117C12.7712 10.3105 12.5801 10.4615 12.3306 10.5698C12.0849 10.6743 11.7925 10.7266 11.4532 10.7266C10.7825 10.7266 10.2483 10.5331 9.85056 10.146L10.336 9.61189C10.6441 9.88283 11.0087 10.0183 11.4298 10.0183C11.6326 10.0183 11.7944 9.97572 11.9153 9.89057C12.0401 9.80155 12.1025 9.67963 12.1025 9.52481C12.1025 9.37773 12.0498 9.26355 11.9445 9.18227C11.8431 9.09711 11.6521 9.01196 11.3713 8.92681C10.8956 8.7836 10.5583 8.61524 10.3594 8.42171C10.1606 8.22818 10.0611 7.97854 10.0611 7.67277C10.0611 7.43279 10.1274 7.22379 10.26 7.04574C10.3965 6.8677 10.5797 6.73223 10.8098 6.63934C11.0438 6.54645 11.3031 6.5 11.5877 6.5C12.1843 6.5 12.6679 6.67417 13.0383 7.02252L12.5879 7.53923C12.4515 7.42699 12.3033 7.34377 12.1434 7.28958C11.9874 7.23153 11.8256 7.2025 11.6579 7.2025C11.4708 7.2025 11.3226 7.23733 11.2134 7.307C11.1081 7.3728 11.0555 7.46956 11.0555 7.59729C11.0555 7.68244 11.0789 7.75405 11.1257 7.8121C11.1764 7.87016 11.2582 7.92435 11.3713 7.97467C11.4844 8.02498 11.654 8.08498 11.8802 8.15464C12.2935 8.2785 12.5996 8.43913 12.7985 8.63652C13.0013 8.83005 13.1026 9.10099 13.1026 9.44933Z" fill="black"/>
<path d="M5.98888 9.93121H5.23435V6.6045H4.41548L3.10528 7.39409L3.49717 8.02692L4.33359 7.5044V9.93121H3.35679V10.6279H5.98888V9.93121Z" fill="black"/>
<path d="M7.56585 9.6235C7.44107 9.75123 7.37868 9.90218 7.37868 10.0764C7.37868 10.2544 7.44107 10.4073 7.56585 10.535C7.69453 10.6627 7.84856 10.7266 8.02793 10.7266C8.2073 10.7266 8.35938 10.6627 8.48416 10.535C8.61284 10.4073 8.67718 10.2544 8.67718 10.0764C8.67718 9.90218 8.61284 9.75123 8.48416 9.6235C8.35938 9.49578 8.2073 9.43191 8.02793 9.43191C7.84856 9.43191 7.69453 9.49578 7.56585 9.6235Z" fill="black"/>
<path d="M16.1068 6.61031C15.904 6.53677 15.6623 6.5 15.3815 6.5C15.0228 6.5 14.6991 6.58322 14.4106 6.74965C14.122 6.91608 13.8958 7.15799 13.7321 7.47537C13.5683 7.79275 13.4864 8.17013 13.4864 8.60749C13.4864 9.05647 13.5663 9.44159 13.7262 9.76284C13.8861 10.0802 14.1064 10.3202 14.3872 10.4828C14.6718 10.6453 14.9994 10.7266 15.3698 10.7266C15.9196 10.7266 16.3739 10.5447 16.7326 10.1809L16.2998 9.62931C16.1516 9.74543 16.0132 9.83445 15.8845 9.89638C15.7558 9.9583 15.6018 9.98927 15.4225 9.98927C15.13 9.98927 14.8999 9.87702 14.7323 9.65253C14.5646 9.42417 14.4807 9.07583 14.4807 8.60749C14.4807 8.13916 14.5646 7.78888 14.7323 7.55665C14.9038 7.32442 15.128 7.2083 15.4049 7.2083C15.6974 7.2083 15.9664 7.307 16.2121 7.5044L16.68 6.94124C16.5006 6.79416 16.3096 6.68385 16.1068 6.61031Z" fill="black"/>
<path d="M5.14077 13.4302C4.9302 13.3257 4.67674 13.2734 4.38038 13.2734C4.06843 13.2734 3.79938 13.3334 3.57321 13.4534C3.35094 13.5734 3.15987 13.7437 3 13.9643L3.56151 14.3881C3.6707 14.2449 3.78183 14.1423 3.89491 14.0804C4.00799 14.0146 4.14057 13.9817 4.29265 13.9817C4.46812 13.9817 4.60265 14.0281 4.69623 14.121C4.78982 14.2139 4.83661 14.3436 4.83661 14.51C4.83661 14.6687 4.78202 14.839 4.67284 15.0209C4.56755 15.199 4.39598 15.4177 4.15812 15.677C3.92026 15.9324 3.56151 16.2905 3.08189 16.7511V17.4013H5.77247L5.8719 16.6988H4.14057C4.56561 16.3234 4.89315 16.0099 5.12322 15.7583C5.35718 15.5028 5.52486 15.2725 5.62624 15.0674C5.72762 14.8622 5.77832 14.6494 5.77832 14.4287C5.77832 14.2197 5.72372 14.0281 5.61454 13.854C5.50926 13.6759 5.35133 13.5347 5.14077 13.4302Z" fill="black"/>
<path d="M7.37868 16.8498C7.37868 16.6756 7.44107 16.5246 7.56585 16.3969C7.69453 16.2692 7.84856 16.2053 8.02793 16.2053C8.2073 16.2053 8.35938 16.2692 8.48416 16.3969C8.61284 16.5246 8.67718 16.6756 8.67718 16.8498C8.67718 17.0278 8.61284 17.1807 8.48416 17.3084C8.35938 17.4361 8.2073 17.5 8.02793 17.5C7.84856 17.5 7.69453 17.4361 7.56585 17.3084C7.44107 17.1807 7.37868 17.0278 7.37868 16.8498Z" fill="black"/>
<path fill-rule="evenodd" clip-rule="evenodd" d="M12.8511 16.7627C12.8199 16.7085 12.8043 16.6253 12.8043 16.513V15.3054C12.8043 14.5778 12.352 14.2139 11.4474 14.2139C11.2719 14.2139 11.075 14.2352 10.8566 14.2778C10.6421 14.3165 10.4355 14.3726 10.2366 14.4462L10.4472 15.0558C10.5953 15.0055 10.7474 14.9667 10.9034 14.9397C11.0633 14.9087 11.1958 14.8932 11.3011 14.8932C11.7106 14.8932 11.9153 15.0519 11.9153 15.3693V15.4796H11.5C11.0204 15.4796 10.648 15.5725 10.3828 15.7583C10.1177 15.9402 9.98509 16.1976 9.98509 16.5304C9.98509 16.8169 10.0806 17.051 10.2717 17.2329C10.4628 17.411 10.7182 17.5 11.0379 17.5C11.2407 17.5 11.4318 17.4652 11.6111 17.3955C11.7905 17.322 11.9387 17.2175 12.0557 17.082C12.1259 17.2058 12.2233 17.3007 12.3481 17.3665C12.4729 17.4284 12.6289 17.469 12.816 17.4884L13.0091 16.8846C12.935 16.8575 12.8823 16.8169 12.8511 16.7627ZM11.6696 16.7569C11.5643 16.8149 11.4591 16.8439 11.3538 16.8439C11.2212 16.8439 11.1179 16.811 11.0438 16.7452C10.9736 16.6795 10.9385 16.5866 10.9385 16.4666C10.9385 16.1569 11.188 16.0021 11.6872 16.0021H11.9153V16.5072C11.8607 16.6117 11.7788 16.6949 11.6696 16.7569Z" fill="black"/>
<path fill-rule="evenodd" clip-rule="evenodd" d="M14.4983 16.1298C14.5568 16.5982 14.8063 16.8323 15.247 16.8323C15.5121 16.8323 15.7773 16.7472 16.0425 16.5769L16.4109 17.0762C16.2589 17.2078 16.0775 17.3123 15.867 17.3897C15.6564 17.4632 15.4244 17.5 15.1709 17.5C14.8239 17.5 14.5295 17.4323 14.2877 17.2968C14.046 17.1575 13.8627 16.9659 13.7379 16.722C13.617 16.4743 13.5566 16.1879 13.5566 15.8628C13.5566 15.5531 13.6151 15.2745 13.7321 15.0267C13.8529 14.7752 14.0265 14.5778 14.2526 14.4346C14.4827 14.2875 14.7557 14.2139 15.0715 14.2139C15.3679 14.2139 15.6252 14.2778 15.8436 14.4055C16.062 14.5294 16.2296 14.7113 16.3466 14.9513C16.4675 15.1874 16.5279 15.4699 16.5279 15.7989C16.5279 15.9266 16.5221 16.0369 16.5104 16.1298H14.4983ZM15.0715 14.8293C14.9038 14.8293 14.7693 14.8913 14.6679 15.0151C14.5665 15.1351 14.5061 15.3209 14.4866 15.5725H15.6272C15.6194 15.0771 15.4341 14.8293 15.0715 14.8293Z" fill="black"/>
<path fill-rule="evenodd" clip-rule="evenodd" d="M20 18C20 19.1046 19.1046 20 18 20H2C0.895431 20 0 19.1046 0 18V2C0 1.93096 0.00349778 1.86275 0.0103258 1.79551C0.112746 0.787 0.964466 0 2 0H18C19.1046 0 20 0.895431 20 2V18ZM1 5H19V8.14884H18.0581V6.6045H17.0989V10.6279H18.0581V8.93262H19V13.3665C18.82 13.3044 18.6152 13.2734 18.3857 13.2734C17.8397 13.2734 17.3777 13.4553 16.9994 13.8191L17.4732 14.3068C17.7189 14.0746 17.9879 13.9585 18.2804 13.9585C18.4558 13.9585 18.5982 14.003 18.7074 14.092C18.8165 14.1772 18.8711 14.2952 18.8711 14.4462C18.8711 14.6165 18.8146 14.7481 18.7015 14.841C18.5923 14.93 18.4441 14.9745 18.257 14.9745H17.9996L17.8943 15.6015H18.2628C18.7191 15.6015 18.9472 15.8028 18.9472 16.2053C18.9472 16.3911 18.8848 16.5362 18.76 16.6407C18.6352 16.7452 18.4695 16.7975 18.2628 16.7975C17.9236 16.7975 17.6428 16.6698 17.4206 16.4143L16.9 16.8962C17.0716 17.0897 17.2782 17.2387 17.52 17.3432C17.7618 17.4477 18.0308 17.5 18.3272 17.5C18.5756 17.5 18.7998 17.4665 19 17.3995V18C19 18.5523 18.5523 19 18 19H2C1.44772 19 1 18.5523 1 18V5ZM19 15.2802V15.2502C18.9789 15.2573 18.9574 15.2641 18.9355 15.2706C18.9574 15.2735 18.9789 15.2767 19 15.2802Z" fill="black"/>
</svg>
